X:16
T:Logie of Buchan. JBu.16
O:England,South Yorkshire
S:Joshua Burnett’s MS,c1835,S.Yorkshire
M:3/4
L:1/4
Q:3/4=70
R:air
Z:vmp.R.Greig.2010
K:D
A/>G/|F>GA|Afe|dBB|B2A/>G/|F>GA|Ade|fdd|d2:|
|:d/>e/|fdf|afd|fee|e2d/>e/|f>gf|ede|fdB|B2A/>G/|
F>GA|Afe|dBB|B2A/>G/|F>GA|Ade|fdd|d2:|

